X: 141009
Q: "Slow."
M: 6/8
L: 1/8
K: G
(DE) |\
e3 (g2e) | e2d d2e | c2c B2A | B3- B2 |]\
d |\
e3 g2e | e2d d2e | c2c B2A | "^ad lib."e2x x3 & B3 d2B |\


